X: 39121
T: Sweet Dublin Bay
R: waltz
M: 3/4
K: Adorian
|:E2|A2A2AB|c2B2A2|g4a2|a4g2|ed3B2|A4AB|G4G2|G2E2G2|
A2A2AB|c2B2A2|g4a2|a4g2|ed3B2|A4A2|A4A2|A4:|
|:ef|g2g2B2|d2e2g2|a4 za|a4a2|ge3d2|A4AB|G4G2|G2E2G2|
A2A2AB|c2B2A2|g4a2|a4g2|ed3B2|A4A2|A4A2|A4:|

